svg/opengist.svg

<svg xmlns="http://www.w3.org/2000/svg" xmlns:xlink="http://www.w3.org/1999/xlink" version="1.1" viewBox="3.24 8.54 505.52 494.93"><g id="surface1"><path style="stroke:none;fill-rule:nonzero;fill:#fff;fill-opacity:1" d="M 480.085938 297.472656 C 503.464844 176.296875 422.230469 59.390625 298.496094 36.523438 C 174.59375 13.652344 55.296875 93.355469 31.914062 214.527344 C 8.535156 335.703125 89.769531 452.609375 213.503906 475.476562 C 337.40625 498.347656 456.703125 418.644531 480.085938 297.472656 Z M 480.085938 297.472656"/><path style="stroke:none;fill-rule:nonzero;fill:#fff;fill-opacity:1" d="M 475.988281 256 C 475.988281 351.0625 413.183594 431.785156 325.800781 460.457031 C 326.144531 458.410156 326.316406 456.191406 326.316406 453.632812 C 326.484375 415.574219 326.65625 391.851562 326.65625 363.519531 C 326.65625 343.550781 326.316406 332.628906 326.316406 332.628906 C 329.386719 332.628906 362.324219 322.390625 377.34375 311.980469 C 392.363281 301.566406 408.234375 281.769531 410.453125 253.609375 C 412.671875 225.28125 400.214844 191.828125 389.289062 172.03125 C 367.445312 132.4375 349.355469 108.203125 333.484375 94.71875 C 317.609375 81.40625 306.003906 84.308594 295.765625 92.332031 C 285.523438 100.351562 270.507812 124.757812 259.753906 134.484375 C 254.632812 139.265625 241.664062 154.964844 224.9375 140.117188 C 220.160156 136.019531 191.148438 96.257812 173.226562 101.375 C 150.871094 107.691406 125.269531 147.96875 113.324219 176.128906 C 97.960938 211.96875 94.890625 233.472656 102.910156 284.5 C 110.933594 335.53125 115.710938 386.902344 123.050781 414.890625 C 124.757812 421.71875 126.976562 427.519531 129.878906 432.640625 C 73.214844 393.726562 36.011719 329.046875 36.011719 256 C 36.011719 137.046875 134.484375 40.449219 256 40.449219 C 377.515625 40.449219 475.988281 137.046875 475.988281 256 Z M 475.988281 256"/><path style="stroke:none;fill-rule:nonzero;fill:#000;fill-opacity:1" d="M 256 8.535156 C 116.394531 8.535156 3.242188 119.296875 3.242188 256 C 3.242188 392.703125 116.394531 503.464844 256 503.464844 C 395.605469 503.464844 508.757812 392.703125 508.757812 256 C 508.757812 119.296875 395.605469 8.535156 256 8.535156 Z M 325.800781 460.457031 C 326.144531 458.410156 326.316406 456.191406 326.316406 453.632812 C 326.484375 415.574219 326.65625 391.851562 326.65625 363.519531 C 326.65625 343.550781 326.316406 332.628906 326.316406 332.628906 C 329.386719 332.628906 362.324219 322.390625 377.34375 311.980469 C 392.363281 301.566406 408.234375 281.769531 410.453125 253.609375 C 412.671875 225.28125 400.214844 191.828125 389.289062 172.03125 C 367.445312 132.4375 349.355469 108.203125 333.484375 94.71875 C 317.609375 81.40625 306.003906 84.308594 295.765625 92.332031 C 285.523438 100.351562 270.507812 124.757812 259.753906 134.484375 C 254.632812 139.265625 241.664062 154.964844 224.9375 140.117188 C 220.160156 136.019531 191.148438 96.257812 173.226562 101.375 C 150.871094 107.691406 125.269531 147.96875 113.324219 176.128906 C 97.960938 211.96875 94.890625 233.472656 102.910156 284.5 C 110.933594 335.53125 115.710938 386.902344 123.050781 414.890625 C 124.757812 421.71875 126.976562 427.519531 129.878906 432.640625 C 73.214844 393.726562 36.011719 329.046875 36.011719 256 C 36.011719 137.046875 134.484375 40.449219 256 40.449219 C 377.515625 40.449219 475.988281 137.046875 475.988281 256 C 475.988281 351.0625 413.183594 431.785156 325.800781 460.457031 Z M 325.800781 460.457031"/><path style="stroke:none;fill-rule:nonzero;fill:#fff;fill-opacity:1" d="M 80.554688 243.710938 L 236.203125 227.667969 L 235.691406 215.722656 L 80.042969 231.765625 Z M 80.554688 243.710938"/><path style="stroke:none;fill-rule:nonzero;fill:#fff;fill-opacity:1" d="M 276.480469 226.476562 C 277.84375 210.089844 265.386719 195.753906 248.660156 194.390625 C 231.9375 193.023438 217.257812 205.3125 215.894531 221.695312 C 214.527344 238.078125 226.988281 252.414062 243.710938 253.78125 C 260.4375 255.148438 275.113281 242.859375 276.480469 226.476562 Z M 276.480469 226.476562"/><path style="stroke:none;fill-rule:nonzero;fill:#fff;fill-opacity:1" d="M 363.347656 214.015625 C 364.714844 197.632812 352.257812 183.296875 335.53125 181.929688 C 318.804688 180.566406 304.128906 192.851562 302.761719 209.238281 C 301.398438 225.621094 313.855469 239.957031 330.582031 241.324219 C 347.308594 242.6875 361.984375 230.398438 363.347656 214.015625 Z M 363.347656 214.015625"/><path style="stroke:none;fill-rule:nonzero;fill:#fff;fill-opacity:1" d="M 235.863281 227.328125 L 351.230469 214.871094 L 350.378906 204.117188 L 235.179688 216.574219 Z M 235.863281 227.328125"/><path style="stroke:none;fill-rule:nonzero;fill:#fff;fill-opacity:1" d="M 346.625 215.722656 L 431.105469 194.902344 L 430.078125 184.148438 L 345.601562 204.96875 Z M 346.625 215.722656"/></g></svg>

<svg xmlns="http://www.w3.org/2000/svg" viewBox="3.24 8.54 505.52 494.93"><path d="M480.086 297.473c23.379-121.176-57.856-238.082-181.59-260.95-123.902-22.87-243.2 56.832-266.582 178.004C8.535 335.703 89.77 452.61 213.504 475.477c123.902 22.87 243.2-56.832 266.582-178.004m0 0" style="stroke:none;fill-rule:nonzero;fill:#fff;fill-opacity:1"/><path d="M475.988 256c0 95.063-62.804 175.785-150.187 204.457.344-2.047.515-4.266.515-6.824.168-38.059.34-61.781.34-90.113 0-19.97-.34-30.891-.34-30.891 3.07 0 36.008-10.238 51.028-20.649 15.02-10.414 30.89-30.21 33.11-58.37 2.218-28.329-10.24-61.782-21.165-81.579-21.844-39.594-39.934-63.828-55.805-77.312-15.875-13.313-27.48-10.41-37.718-2.387-10.243 8.02-25.258 32.426-36.012 42.152-5.121 4.782-18.09 20.48-34.817 5.633-4.777-4.097-33.789-43.86-51.71-38.742-22.356 6.316-47.957 46.594-59.903 74.754-15.363 35.84-18.433 57.344-10.414 108.371 8.024 51.031 12.8 102.402 20.14 130.39 1.708 6.829 3.927 12.63 6.829 17.75C73.215 393.728 36.012 329.048 36.012 256c0-118.953 98.472-215.55 219.988-215.55S475.988 137.046 475.988 256m0 0" style="stroke:none;fill-rule:nonzero;fill:#fff;fill-opacity:1"/><path d="M256 8.535C116.395 8.535 3.242 119.297 3.242 256S116.395 503.465 256 503.465 508.758 392.703 508.758 256 395.605 8.535 256 8.535m69.8 451.922c.345-2.047.516-4.266.516-6.824.168-38.059.34-61.781.34-90.113 0-19.97-.34-30.891-.34-30.891 3.07 0 36.008-10.238 51.028-20.649 15.02-10.414 30.89-30.21 33.11-58.37 2.218-28.329-10.24-61.782-21.165-81.579-21.844-39.594-39.934-63.828-55.805-77.312-15.875-13.313-27.48-10.41-37.718-2.387-10.243 8.02-25.258 32.426-36.012 42.152-5.121 4.782-18.09 20.48-34.817 5.633-4.777-4.097-33.789-43.86-51.71-38.742-22.356 6.316-47.957 46.594-59.903 74.754-15.363 35.84-18.433 57.344-10.414 108.371 8.024 51.031 12.8 102.402 20.14 130.39 1.708 6.829 3.927 12.63 6.829 17.75C73.215 393.728 36.012 329.048 36.012 256c0-118.953 98.472-215.55 219.988-215.55S475.988 137.046 475.988 256c0 95.063-62.804 175.785-150.187 204.457m0 0" style="stroke:none;fill-rule:nonzero;fill:#000;fill-opacity:1"/><path d="m80.555 243.71 155.648-16.042-.512-11.945-155.648 16.043Zm0 0" style="stroke:none;fill-rule:nonzero;fill:#fff;fill-opacity:1"/><path d="M276.48 226.477c1.364-16.387-11.093-30.723-27.82-32.086-16.722-1.368-31.402 10.922-32.765 27.304-1.368 16.383 11.093 30.72 27.816 32.086 16.726 1.367 31.402-10.922 32.77-27.304M363.348 214.016c1.367-16.383-11.09-30.72-27.817-32.086-16.726-1.364-31.402 10.922-32.77 27.308-1.363 16.383 11.094 30.719 27.821 32.086 16.727 1.363 31.402-10.926 32.766-27.308m0 0" style="stroke:none;fill-rule:nonzero;fill:#fff;fill-opacity:1"/><path d="m235.863 227.328 115.367-12.457-.851-10.754-115.2 12.457Zm0 0" style="stroke:none;fill-rule:nonzero;fill:#fff;fill-opacity:1"/><path d="m346.625 215.723 84.48-20.82-1.027-10.755-84.476 20.82Zm0 0" style="stroke:none;fill-rule:nonzero;fill:#fff;fill-opacity:1"/></svg>
